browser/themes/shared/icons/open-in-new.svg

<svg width="12" height="12" viewBox="0 0 12 12" xmlns="http://www.w3.org/2000/svg">
<g clip-path="url(#clip0)">
<path fill="context-fill" fill-opacity="context-fill-opacity" fill-rule="evenodd" clip-rule="evenodd" d="M6.27637 5.72141C5.90709 5.35075 5.90799 4.75069 6.27839 4.38114L8.75216 1.91306L8.33619 1.8945C7.81368 1.87118 7.409 1.42839 7.4323 0.9055C7.45561 0.382614 7.89808 -0.0223633 8.42059 0.000958827H11.0923C11.5833 0.022873 11.9788 0.508617 11.9992 1V3.59294C12.0209 4.11589 11.6149 4.55746 11.0923 4.5792C10.5697 4.60094 10.1285 4.19463 10.1067 3.67167L10.0894 3.25535L7.61567 5.72343C7.24527 6.09298 6.64565 6.09207 6.27637 5.72141Z" />
<path fill="context-fill" fill-opacity="context-fill-opacity" d="M5 1C5 1.55228 4.55228 2 4 2H3C2.44772 2 2 2.44772 2 3V9C2 9.55228 2.44772 10 3 10H9C9.55228 10 10 9.55228 10 9V8C10 7.44772 10.4477 7 11 7C11.5523 7 12 7.44772 12 8V9C12 10.6569 10.6569 12 9 12H3C1.34315 12 0 10.6569 0 9V3C0 1.34315 1.34315 2.34758e-10 3 2.34758e-10H4C4.55228 2.34758e-10 5 0.447715 5 1Z" />
</g>
<defs>
<clipPath id="clip0">
<rect width="12" height="12" fill="white"/>
</clipPath>
</defs>
</svg>

<!-- This Source Code Form is subject to the terms of the Mozilla Public
   - License, v. 2.0. If a copy of the MPL was not distributed with this
   - file, You can obtain one at http://mozilla.org/MPL/2.0/. -->
<svg viewBox="0 0 12 12" fill="context-fill" fill-opacity="context-fill-opacity" xmlns="http://www.w3.org/2000/svg"><path d="M4 0c.6 0 1 .4 1 1s-.5 1-1 1H3c-.6 0-1 .4-1 1v6c0 .6.4 1 1 1h6c.6 0 1-.4 1-1V8c0-.6.4-1 1-1s1 .4 1 1v1c0 1.7-1.3 3-3 3H3c-1.7 0-3-1.3-3-3V3c0-1.7 1.3-3 3-3zm7 0c.4 0 .8.2.9.6.1.1.1.3.1.4v3c0 .6-.4 1-1 1s-1-.4-1-1v-.6L8.7 4.7c-.2.3-.6.4-1 .3-.3-.1-.6-.4-.7-.7s0-.7.3-1L8.6 2H8c-.5 0-1-.4-1-1s.4-1 1-1z"/></svg>
